!!!SOCIAL_FUNCTION: hand game and ghost dance songs
!!!SOCIAL_FUNCTION2: Ghost dance
!!!PDT:	1929
!!!LING_GROUP: Caddoan
!!!LANG: Non-Tone
!!!REG: Oklahoma
!!!COM: Anon.
!!!OTL: Ghost Dance Song (d)
!!!ODT: <1920//
!!!MPN: Horse Chief [Spotted Horse Chief]
!!!MLC: Pawnee, Oklahoma, United States of America
!! Song was recorded either 1919 or 1920.
!!!AGN: monody
!!!AMT: irregular
!!!RWG: Transcribed pitches, durations, and meters are only approximate.
!! Drum not recorded
**kern
*ICvox
*Imale
*clefF4
*k[f#]
*M3/4
*MM96
=1-
8.B
16B
8.B
16B
8B
8r
=2
8B
8B
8B
8B
8B
8r
*M2/4
=3
8B
8G
8.G
16F#
=4
8.G
16F#
8.G
16F#
=5
4E
8.E
16D#
=6
8.E
16D#
8E
8r
=7
8B
8G
8.G
16F#
=8
8.G
16F#
8.G
16F#
=9
4E
8.E
16D#
=10
8.E
16D#
8E
8r
*M3/4
=11
8.E
16E
8.E
16D#
8E
8r
=12
8.E
16E
8.E
16D#
8E
8r
==
*-
!!!HAO:    The four songs next [this, and the preceding three] were also said to
!!!HAO: be Ghost dance songs, used in the dances incident to a hand game.
!!!HTX: [no free translation]
!!!CNT: Pawnee
!!!TXO: Pawnee
!!!OCY: United States
!!!OCL: Frances Densmore
!!!YOR: Frances Densmore, "Pawnee Music"
!!!YOR: Bulletin 93, page 83, No. 56
!!!PPR: Smithsonian Institution, Bureau of American Ethnology
!!!PPR: Government Printing Office
!!!PDT: 1926
!!!PPP: Washington, DC, United States of America
!!!YEC: Electronic Copyright 2000 David Huron
!!!YER: September 2000
!!!YEN: United States of America
!!!ENC: David Huron
!!!RDT: September 4, 2000
!!!EEV: Release 1.0
!!!AIN: vox
